X:171
T: Die hoechste Freud
N: A0209
O: Europa, Mitteleuropa, Deutschland
N: Souterliedekens 1540 ad Ps. 61.
R: Romanze, Ballade, Lied
M: 4/2
L: 1/2
K: F
F | FGA2 | zAGF | B2zA | (3A2G(3FEF | G2F
F | FGA2 | zAGF | B2zA | (3A2G(3FEF | G2F
A | (3G2F(3EFG(3FD2 | C2z
F | FGA2 | zAGF | B2zA | (3A2G(3FEF | G2F

@@@ Tune index: 171
